images/portal/4139.svg

<?xml version="1.0" standalone="no"?><!DOCTYPE svg PUBLIC "-//W3C//DTD SVG 1.1//EN" "http://www.w3.org/Graphics/SVG/1.1/DTD/svg11.dtd"><svg xmlns:xlink="http://www.w3.org/1999/xlink" version="1.1" class="highcharts-root" style="font-family:Arial;font-size:12px;" xmlns="http://www.w3.org/2000/svg" viewBox="0 0 485 415"><desc>Created with Highstock 5.0.7</desc><defs><clipPath id="highcharts-ui7nhqn-1"><rect x="0" y="0" width="276" height="245" fill="none"></rect></clipPath><clipPath id="highcharts-ui7nhqn-2"><rect x="0" y="0" width="276" height="245" fill="none"></rect></clipPath><clipPath id="highcharts-ui7nhqn-3"><rect x="0" y="0" width="276" height="245" fill="none"></rect></clipPath></defs><rect fill="#fbfbfb" class="highcharts-background" x="0" y="0" width="485" height="415" rx="0" ry="0"></rect><rect fill="none" class="highcharts-plot-background" x="43" y="75" width="276" height="245"></rect><g class="highcharts-grid highcharts-xaxis-grid "><path fill="none" class="highcharts-grid-line" d="M 88.5 75 L 88.5 320 M 88.5 75 L 88.5 320" opacity="1"></path><path fill="none" class="highcharts-grid-line" d="M 134.5 75 L 134.5 320 M 134.5 75 L 134.5 320" opacity="1"></path><path fill="none" class="highcharts-grid-line" d="M 180.5 75 L 180.5 320 M 180.5 75 L 180.5 320" opacity="1"></path><path fill="none" class="highcharts-grid-line" d="M 226.5 75 L 226.5 320 M 226.5 75 L 226.5 320" opacity="1"></path><path fill="none" class="highcharts-grid-line" d="M 272.5 75 L 272.5 320 M 272.5 75 L 272.5 320" opacity="1"></path><path fill="none" class="highcharts-grid-line" d="M 318.5 75 L 318.5 320 M 318.5 75 L 318.5 320" opacity="1"></path><path fill="none" class="highcharts-grid-line" d="M 42.5 75 L 42.5 320 M 42.5 75 L 42.5 320" opacity="1"></path></g><g class="highcharts-grid highcharts-yaxis-grid "><path fill="none" stroke="#e6e6e6" stroke-width="1" class="highcharts-grid-line" d="M 43 320.5 L 319 320.5" opacity="1"></path><path fill="none" stroke="#e6e6e6" stroke-width="1" class="highcharts-grid-line" d="M 43 259.5 L 319 259.5" opacity="1"></path><path fill="none" stroke="#e6e6e6" stroke-width="1" class="highcharts-grid-line" d="M 43 198.5 L 319 198.5" opacity="1"></path><path fill="none" stroke="#e6e6e6" stroke-width="1" class="highcharts-grid-line" d="M 43 136.5 L 319 136.5" opacity="1"></path><path fill="none" stroke="#e6e6e6" stroke-width="1" class="highcharts-grid-line" d="M 43 74.5 L 319 74.5" opacity="1"></path></g><g class="highcharts-grid highcharts-yaxis-grid "><path fill="none" class="highcharts-grid-line" d="M 43 320.5 L 319 320.5" opacity="1"></path><path fill="none" class="highcharts-grid-line" d="M 43 259.5 L 319 259.5" opacity="1"></path><path fill="none" class="highcharts-grid-line" d="M 43 198.5 L 319 198.5" opacity="1"></path><path fill="none" class="highcharts-grid-line" d="M 43 136.5 L 319 136.5" opacity="1"></path><path fill="none" class="highcharts-grid-line" d="M 43 75.5 L 319 75.5" opacity="1"></path></g><rect fill="none" class="highcharts-plot-border" x="43" y="75" width="276" height="245"></rect><g class="highcharts-axis highcharts-xaxis "><path fill="none" class="highcharts-tick" stroke="#FFFFFF" stroke-width="1" d="M 88.5 320 L 88.5 330" opacity="1"></path><path fill="none" class="highcharts-tick" stroke="#FFFFFF" stroke-width="1" d="M 134.5 320 L 134.5 330" opacity="1"></path><path fill="none" class="highcharts-tick" stroke="#FFFFFF" stroke-width="1" d="M 180.5 320 L 180.5 330" opacity="1"></path><path fill="none" class="highcharts-tick" stroke="#FFFFFF" stroke-width="1" d="M 226.5 320 L 226.5 330" opacity="1"></path><path fill="none" class="highcharts-tick" stroke="#FFFFFF" stroke-width="1" d="M 272.5 320 L 272.5 330" opacity="1"></path><path fill="none" class="highcharts-tick" stroke="#FFFFFF" stroke-width="1" d="M 319.5 320 L 319.5 330" opacity="1"></path><path fill="none" class="highcharts-tick" stroke="#FFFFFF" stroke-width="1" d="M 42.5 320 L 42.5 330" opacity="1"></path><path fill="none" class="highcharts-axis-line" stroke="#ccd6eb" stroke-width="1" d="M 43 320.5 L 319 320.5"></path></g><g class="highcharts-axis highcharts-yaxis "><path fill="none" class="highcharts-axis-line" d="M 43 75 L 43 320"></path></g><g class="highcharts-axis highcharts-yaxis "><path fill="none" class="highcharts-axis-line" d="M 319 75 L 319 320"></path></g><g class="highcharts-series-group"><g class="highcharts-series highcharts-series-0 highcharts-column-series highcharts-color-undefined highcharts-tracker" visibility="hidden" transform="translate(43,75) scale(1 1)" clip-path="url(#highcharts-ui7nhqn-2)"></g><g class="highcharts-markers highcharts-series-0 highcharts-column-series highcharts-color-undefined " visibility="hidden" transform="translate(43,75) scale(1 1)" clip-path="none"></g><g class="highcharts-series highcharts-series-1 highcharts-column-series highcharts-color-undefined highcharts-tracker" visibility="hidden" transform="translate(43,75) scale(1 1)" clip-path="url(#highcharts-ui7nhqn-2)"></g><g class="highcharts-markers highcharts-series-1 highcharts-column-series highcharts-color-undefined " visibility="hidden" transform="translate(43,75) scale(1 1)" clip-path="none"></g><g class="highcharts-series highcharts-series-2 highcharts-column-series highcharts-color-undefined highcharts-tracker" transform="translate(43,75) scale(1 1)" clip-path="url(#highcharts-ui7nhqn-2)"><rect x="7.5" y="225.5" width="30" height="20" fill="#0a3b19" class="highcharts-point" stroke="#ffffff" stroke-width="1"></rect><rect x="53.5" y="164.5" width="30" height="81" fill="#0a3b19" class="highcharts-point" stroke="#ffffff" stroke-width="1"></rect><rect x="99.5" y="141.5" width="30" height="104" fill="#0a3b19" class="highcharts-point" stroke="#ffffff" stroke-width="1"></rect><rect x="145.5" y="55.5" width="30" height="190" fill="#0a3b19" class="highcharts-point" stroke="#ffffff" stroke-width="1"></rect><rect x="191.5" y="138.5" width="30" height="107" fill="#0a3b19" class="highcharts-point" stroke="#ffffff" stroke-width="1"></rect><rect x="237.5" y="194.5" width="30" height="51" fill="#0a3b19" class="highcharts-point" stroke="#ffffff" stroke-width="1"></rect></g><g class="highcharts-markers highcharts-series-2 highcharts-column-series highcharts-color-undefined " transform="translate(43,75) scale(1 1)" clip-path="none"></g><g class="highcharts-series highcharts-series-3 highcharts-line-series highcharts-color-undefined " visibility="hidden" transform="translate(43,75) scale(1 1)" clip-path="url(#highcharts-ui7nhqn-3)"><path fill="none" d="M 23 -153.12499999999994 L 69 153.125 L 115 177.625 L 161 171.5 L 207 134.75 L 253 226.625" class="highcharts-graph" stroke="#ff8028" stroke-width="2" stroke-linejoin="round" stroke-linecap="round"></path><path fill="none" d="M 13 -153.12499999999994 L 23 -153.12499999999994 L 69 153.125 L 115 177.625 L 161 171.5 L 207 134.75 L 253 226.625 L 263 226.625" stroke-linejoin="round" visibility="hidden" stroke="rgba(192,192,192,0.0001)" stroke-width="22" class="highcharts-tracker"></path></g><g class="highcharts-markers highcharts-series-3 highcharts-line-series highcharts-color-undefined highcharts-tracker" visibility="hidden" transform="translate(43,75) scale(1 1)" clip-path="none"></g><g class="highcharts-series highcharts-series-4 highcharts-line-series highcharts-color-undefined " visibility="hidden" transform="translate(43,75) scale(1 1)" clip-path="url(#highcharts-ui7nhqn-3)"><path fill="none" d="M 23 312.375 L 69 294 L 115 294 L 161 226.625 L 207 183.75 L 253 134.75" class="highcharts-graph" stroke="#923f8d" stroke-width="2" stroke-linejoin="round" stroke-linecap="round"></path><path fill="none" d="M 13 312.375 L 23 312.375 L 69 294 L 115 294 L 161 226.625 L 207 183.75 L 253 134.75 L 263 134.75" stroke-linejoin="round" visibility="hidden" stroke="rgba(192,192,192,0.0001)" stroke-width="22" class="highcharts-tracker"></path></g><g class="highcharts-markers highcharts-series-4 highcharts-line-series highcharts-color-undefined highcharts-tracker" visibility="hidden" transform="translate(43,75) scale(1 1)" clip-path="none"></g><g class="highcharts-series highcharts-series-5 highcharts-line-series highcharts-color-undefined " transform="translate(43,75) scale(1 1)" clip-path="url(#highcharts-ui7nhqn-3)"><path fill="none" d="M 23 91.875 L 69 128.625 L 115 232.75 L 161 165.375 L 207 104.125 L 253 36.74999999999997" class="highcharts-graph" stroke="#b00000" stroke-width="2" stroke-linejoin="round" stroke-linecap="round"></path><path fill="none" d="M 13 91.875 L 23 91.875 L 69 128.625 L 115 232.75 L 161 165.375 L 207 104.125 L 253 36.74999999999997 L 263 36.74999999999997" stroke-linejoin="round" visibility="visible" stroke="rgba(192,192,192,0.0001)" stroke-width="22" class="highcharts-tracker"></path></g><g class="highcharts-markers highcharts-series-5 highcharts-line-series highcharts-color-undefined highcharts-tracker" transform="translate(43,75) scale(1 1)" clip-path="none"></g></g><text x="10" text-anchor="start" class="highcharts-title" style="color:#000000;font-size:14px;font-weight:bold;fill:#000000;" y="21"><tspan>Anzahl Leerwohnungen und Leerwohnungsquote nach</tspan><tspan dy="17" x="10">Wohnflächenkategorie</tspan><title>Anzahl Leerwohnungen und Leerwohnungsquote nach Wohnflächenkategorie</title></text><g class="highcharts-legend" transform="translate(371,129)"><rect fill="none" class="highcharts-legend-box" rx="0" ry="0" x="0" y="0" width="103" height="137" visibility="visible"></rect><g><g><g class="highcharts-legend-item highcharts-column-series highcharts-color-undefined highcharts-series-0 highcharts-legend-item-hidden" transform="translate(8,3)"><text x="21" style="color:#cccccc;font-size:12px;font-weight:normal;cursor:pointer;fill:#cccccc;" text-anchor="start" y="15"><tspan>Anzahl 2013</tspan></text><rect x="2" y="4" width="12" height="12" fill="#cccccc" class="highcharts-point"></rect></g><g class="highcharts-legend-item highcharts-column-series highcharts-color-undefined highcharts-series-1 highcharts-legend-item-hidden" transform="translate(8,24)"><text x="21" y="15" style="color:#cccccc;font-size:12px;font-weight:normal;cursor:pointer;fill:#cccccc;" text-anchor="start"><tspan>Anzahl 2014</tspan></text><rect x="2" y="4" width="12" height="12" fill="#cccccc" class="highcharts-point"></rect></g><g class="highcharts-legend-item highcharts-column-series highcharts-color-undefined highcharts-series-2" transform="translate(8,45)"><text x="21" y="15" style="color:#333333;font-size:12px;font-weight:normal;cursor:pointer;fill:#333333;" text-anchor="start"><tspan>Anzahl 2015</tspan></text><rect x="2" y="4" width="12" height="12" fill="#0a3b19" class="highcharts-point"></rect></g><g class="highcharts-legend-item highcharts-line-series highcharts-color-undefined highcharts-series-3 highcharts-legend-item-hidden" transform="translate(8,66)"><path fill="none" d="M 0 11 L 16 11" class="highcharts-graph" stroke="#cccccc" stroke-width="2"></path><text x="21" y="15" style="color:#cccccc;font-size:12px;font-weight:normal;cursor:pointer;fill:#cccccc;" text-anchor="start"><tspan>LWQ 2013</tspan></text></g><g class="highcharts-legend-item highcharts-line-series highcharts-color-undefined highcharts-series-4 highcharts-legend-item-hidden" transform="translate(8,87)"><path fill="none" d="M 0 11 L 16 11" class="highcharts-graph" stroke="#cccccc" stroke-width="2"></path><text x="21" y="15" style="color:#cccccc;font-size:12px;font-weight:normal;cursor:pointer;fill:#cccccc;" text-anchor="start"><tspan>LWQ 2014</tspan></text></g><g class="highcharts-legend-item highcharts-line-series highcharts-color-undefined highcharts-series-5" transform="translate(8,108)"><path fill="none" d="M 0 11 L 16 11" class="highcharts-graph" stroke="#b00000" stroke-width="2"></path><text x="21" y="15" style="color:#333333;font-size:12px;font-weight:normal;cursor:pointer;fill:#333333;" text-anchor="start"><tspan>LWQ 2015</tspan></text></g></g></g></g><g class="highcharts-axis-labels highcharts-xaxis-labels "><text x="68.59272486435067" style="color:#000000;cursor:default;font-size:11px;fill:#000000;" text-anchor="end" transform="translate(0,0) rotate(-45 68.59272486435067 336)" y="336" opacity="1"><tspan>bis 29 m²</tspan></text><text x="114.59272486435069" style="color:#000000;cursor:default;font-size:11px;fill:#000000;" text-anchor="end" transform="translate(0,0) rotate(-45 114.59272486435069 336)" y="336" opacity="1"><tspan>30-49 m²</tspan></text><text x="160.59272486435069" style="color:#000000;cursor:default;font-size:11px;fill:#000000;" text-anchor="end" transform="translate(0,0) rotate(-45 160.59272486435069 336)" y="336" opacity="1"><tspan>50-69 m²</tspan></text><text x="206.59272486435069" style="color:#000000;cursor:default;font-size:11px;fill:#000000;" text-anchor="end" transform="translate(0,0) rotate(-45 206.59272486435069 336)" y="336" opacity="1"><tspan>70-99 m²</tspan></text><text x="252.59272486435066" style="color:#000000;cursor:default;font-size:11px;fill:#000000;" text-anchor="end" transform="translate(0,0) rotate(-45 252.59272486435066 336)" y="336" opacity="1"><tspan>100-149 m²</tspan></text><text x="298.59272486435066" style="color:#000000;cursor:default;font-size:11px;fill:#000000;" text-anchor="end" transform="translate(0,0) rotate(-45 298.59272486435066 336)" y="336" opacity="1"><tspan>150+ m²</tspan></text></g><g class="highcharts-axis-labels highcharts-yaxis-labels "><text x="28" style="color:#000000;cursor:default;font-size:11px;fill:#000000;" text-anchor="end" transform="translate(0,0)" y="325" opacity="1"><tspan>0</tspan></text><text x="28" style="color:#000000;cursor:default;font-size:11px;fill:#000000;" text-anchor="end" transform="translate(0,0)" y="263" opacity="1"><tspan>40</tspan></text><text x="28" style="color:#000000;cursor:default;font-size:11px;fill:#000000;" text-anchor="end" transform="translate(0,0)" y="202" opacity="1"><tspan>80</tspan></text><text x="28" style="color:#000000;cursor:default;font-size:11px;fill:#000000;" text-anchor="end" transform="translate(0,0)" y="141" opacity="1"><tspan>120</tspan></text><text x="28" style="color:#000000;cursor:default;font-size:11px;fill:#000000;" text-anchor="end" transform="translate(0,0)" y="80" opacity="1"><tspan>160</tspan></text></g><g class="highcharts-axis-labels highcharts-yaxis-labels "><text x="334" style="color:#000000;cursor:default;font-size:11px;fill:#000000;" text-anchor="start" transform="translate(0,0)" y="325" opacity="1"><tspan>0.2%</tspan></text><text x="334" style="color:#000000;cursor:default;font-size:11px;fill:#000000;" text-anchor="start" transform="translate(0,0)" y="263" opacity="1"><tspan>0.3%</tspan></text><text x="334" style="color:#000000;cursor:default;font-size:11px;fill:#000000;" text-anchor="start" transform="translate(0,0)" y="202" opacity="1"><tspan>0.4%</tspan></text><text x="334" style="color:#000000;cursor:default;font-size:11px;fill:#000000;" text-anchor="start" transform="translate(0,0)" y="141" opacity="1"><tspan>0.5%</tspan></text><text x="334" style="color:#000000;cursor:default;font-size:11px;fill:#000000;" text-anchor="start" transform="translate(0,0)" y="80" opacity="1"><tspan>0.6%</tspan></text></g><text x="10" class="highcharts-credits" text-anchor="start" style="cursor:default;color:#000000;font-size:10px;fill:#000000;" y="390"><tspan>Quelle: Bundesamt für Statistik BFS, STATENT;</tspan><tspan x="10" dy="13">Statistisches Amt Basel-Stadt, Leerstandserhebung</tspan></text></svg>

<svg class="highcharts-root" xmlns="http://www.w3.org/2000/svg" viewBox="0 0 485 415" font-family="Arial" font-size="12">
    <defs>
        <clipPath id="a">
            <path fill="none" d="M0 0h276v245H0z"/>
        </clipPath>
        <clipPath id="b">
            <path fill="none" d="M0 0h276v245H0z"/>
        </clipPath>
    </defs>
    <rect fill="#fbfbfb" class="highcharts-background" width="485" height="415" rx="0" ry="0"/>
    <path fill="none" class="highcharts-plot-background" d="M43 75h276v245H43z"/>
    <g class="highcharts-grid highcharts-xaxis-grid">
        <path fill="none" class="highcharts-grid-line" d="M88.5 75v245m0-245v245m46-245v245m0-245v245m46-245v245m0-245v245m46-245v245m0-245v245m46-245v245m0-245v245m46-245v245m0-245v245M42.5 75v245m0-245v245"/>
    </g>
    <g class="highcharts-grid highcharts-yaxis-grid">
        <path fill="none" stroke="#e6e6e6" class="highcharts-grid-line" d="M43 320.5h276m-276-61h276m-276-61h276m-276-62h276m-276-62h276"/>
    </g>
    <g class="highcharts-grid highcharts-yaxis-grid">
        <path fill="none" class="highcharts-grid-line" d="M43 320.5h276m-276-61h276m-276-61h276m-276-62h276m-276-61h276"/>
    </g>
    <path fill="none" class="highcharts-plot-border" d="M43 75h276v245H43z"/>
    <g class="highcharts-axis highcharts-xaxis">
        <path fill="none" class="highcharts-tick" stroke="#FFF" d="M88.5 320v10m46-10v10m46-10v10m46-10v10m46-10v10m47-10v10m-277-10v10"/>
        <path fill="none" class="highcharts-axis-line" stroke="#ccd6eb" d="M43 320.5h276"/>
    </g>
    <g class="highcharts-axis highcharts-yaxis">
        <path fill="none" class="highcharts-axis-line" d="M43 75v245"/>
    </g>
    <g class="highcharts-axis highcharts-yaxis">
        <path fill="none" class="highcharts-axis-line" d="M319 75v245"/>
    </g>
    <g class="highcharts-series-group">
        <g class="highcharts-series highcharts-series-2 highcharts-column-series highcharts-color-undefined highcharts-tracker" transform="translate(43 75)" clip-path="url(#a)">
            <path fill="#0a3b19" class="highcharts-point" stroke="#fff" d="M7.5 225.5h30v20h-30zm46-61h30v81h-30zm46-23h30v104h-30zm46-86h30v190h-30zm46 83h30v107h-30zm46 56h30v51h-30z"/>
        </g>
        <g class="highcharts-series highcharts-series-3 highcharts-line-series highcharts-color-undefined" visibility="hidden" transform="translate(43 75)" clip-path="url(#b)">
            <path fill="none" d="M23-153.125l46 306.25 46 24.5 46-6.125 46-36.75 46 91.875" class="highcharts-graph" stroke="#ff8028" stroke-width="2" stroke-linejoin="round" stroke-linecap="round"/>
            <path fill="none" d="M13-153.125h10l46 306.25 46 24.5 46-6.125 46-36.75 46 91.875h10" stroke-linejoin="round" stroke="rgba(192,192,192,0.0001)" stroke-width="22" class="highcharts-tracker"/>
        </g>
        <g class="highcharts-series highcharts-series-4 highcharts-line-series highcharts-color-undefined" visibility="hidden" transform="translate(43 75)" clip-path="url(#b)">
            <path fill="none" d="M23 312.375L69 294h46l46-67.375 46-42.875 46-49" class="highcharts-graph" stroke="#923f8d" stroke-width="2" stroke-linejoin="round" stroke-linecap="round"/>
            <path fill="none" d="M13 312.375h10L69 294h46l46-67.375 46-42.875 46-49h10" stroke-linejoin="round" stroke="rgba(192,192,192,0.0001)" stroke-width="22" class="highcharts-tracker"/>
        </g>
        <g class="highcharts-series highcharts-series-5 highcharts-line-series highcharts-color-undefined" transform="translate(43 75)" clip-path="url(#b)">
            <path fill="none" d="M23 91.875l46 36.75 46 104.125 46-67.375 46-61.25 46-67.375" class="highcharts-graph" stroke="#b00000" stroke-width="2" stroke-linejoin="round" stroke-linecap="round"/>
            <path fill="none" d="M13 91.875h10l46 36.75 46 104.125 46-67.375 46-61.25 46-67.375h10" stroke-linejoin="round" stroke="rgba(192,192,192,0.0001)" stroke-width="22" class="highcharts-tracker"/>
        </g>
    </g>
    <text x="10" class="highcharts-title" y="21" color="#000" font-size="14" font-weight="700">
        <tspan>Anzahl Leerwohnungen und Leerwohnungsquote nach</tspan><tspan dy="17" x="10">Wohnflächenkategorie</tspan><title>Anzahl Leerwohnungen und Leerwohnungsquote nach Wohnflächenkategorie</title>
    </text>
    <g class="highcharts-legend" transform="translate(371 129)">
        <rect fill="none" class="highcharts-legend-box" rx="0" ry="0" width="103" height="137"/>
        <g class="highcharts-legend-item highcharts-column-series highcharts-color-undefined highcharts-series-0 highcharts-legend-item-hidden">
            <text x="21" y="15" color="#ccc" font-weight="400" cursor="pointer" fill="#ccc" transform="translate(8 3)">
                <tspan>Anzahl 2013</tspan>
            </text>
            <path fill="#ccc" class="highcharts-point" d="M10 7h12v12H10z"/>
        </g>
        <g class="highcharts-legend-item highcharts-column-series highcharts-color-undefined highcharts-series-1 highcharts-legend-item-hidden">
            <text x="21" y="15" color="#ccc" font-weight="400" cursor="pointer" fill="#ccc" transform="translate(8 24)">
                <tspan>Anzahl 2014</tspan>
            </text>
            <path fill="#ccc" class="highcharts-point" d="M10 28h12v12H10z"/>
        </g>
        <g class="highcharts-legend-item highcharts-column-series highcharts-color-undefined highcharts-series-2">
            <text x="21" y="15" color="#333" font-weight="400" cursor="pointer" fill="#333" transform="translate(8 45)">
                <tspan>Anzahl 2015</tspan>
            </text>
            <path fill="#0a3b19" class="highcharts-point" d="M10 49h12v12H10z"/>
        </g>
        <g class="highcharts-legend-item highcharts-line-series highcharts-color-undefined highcharts-series-3 highcharts-legend-item-hidden">
            <path fill="none" d="M8 77h16" class="highcharts-graph" stroke="#ccc" stroke-width="2"/>
            <text x="21" y="15" color="#ccc" font-weight="400" cursor="pointer" fill="#ccc" transform="translate(8 66)">
                <tspan>LWQ 2013</tspan>
            </text>
        </g>
        <g class="highcharts-legend-item highcharts-line-series highcharts-color-undefined highcharts-series-4 highcharts-legend-item-hidden">
            <path fill="none" d="M8 98h16" class="highcharts-graph" stroke="#ccc" stroke-width="2"/>
            <text x="21" y="15" color="#ccc" font-weight="400" cursor="pointer" fill="#ccc" transform="translate(8 87)">
                <tspan>LWQ 2014</tspan>
            </text>
        </g>
        <g class="highcharts-legend-item highcharts-line-series highcharts-color-undefined highcharts-series-5">
            <path fill="none" d="M8 119h16" class="highcharts-graph" stroke="#b00000" stroke-width="2"/>
            <text x="21" y="15" color="#333" font-weight="400" cursor="pointer" fill="#333" transform="translate(8 108)">
                <tspan>LWQ 2015</tspan>
            </text>
        </g>
    </g>
    <g class="highcharts-axis-labels highcharts-xaxis-labels" text-anchor="end" color="#000" cursor="default" font-size="11">
        <text x="68.593" transform="rotate(-45 68.593 336)" y="336">
            <tspan>bis 29 m²</tspan>
        </text>
        <text x="114.593" transform="rotate(-45 114.593 336)" y="336">
            <tspan>30-49 m²</tspan>
        </text>
        <text x="160.593" transform="rotate(-45 160.593 336)" y="336">
            <tspan>50-69 m²</tspan>
        </text>
        <text x="206.593" transform="rotate(-45 206.593 336)" y="336">
            <tspan>70-99 m²</tspan>
        </text>
        <text x="252.593" transform="rotate(-45 252.593 336)" y="336">
            <tspan>100-149 m²</tspan>
        </text>
        <text x="298.593" transform="rotate(-45 298.593 336)" y="336">
            <tspan>150+ m²</tspan>
        </text>
    </g>
    <g class="highcharts-axis-labels highcharts-yaxis-labels" text-anchor="end" color="#000" cursor="default" font-size="11">
        <text x="28" y="325">
            <tspan>0</tspan>
        </text>
        <text x="28" y="263">
            <tspan>40</tspan>
        </text>
        <text x="28" y="202">
            <tspan>80</tspan>
        </text>
        <text x="28" y="141">
            <tspan>120</tspan>
        </text>
        <text x="28" y="80">
            <tspan>160</tspan>
        </text>
    </g>
    <g class="highcharts-axis-labels highcharts-yaxis-labels" color="#000" cursor="default" font-size="11">
        <text x="334" y="325">
            <tspan>0.2%</tspan>
        </text>
        <text x="334" y="263">
            <tspan>0.3%</tspan>
        </text>
        <text x="334" y="202">
            <tspan>0.4%</tspan>
        </text>
        <text x="334" y="141">
            <tspan>0.5%</tspan>
        </text>
        <text x="334" y="80">
            <tspan>0.6%</tspan>
        </text>
    </g>
    <text x="10" class="highcharts-credits" y="390" cursor="default" color="#000" font-size="10">
        <tspan>Quelle: Bundesamt für Statistik BFS, STATENT;</tspan><tspan x="10" dy="13">Statistisches Amt Basel-Stadt, Leerstandserhebung</tspan>
    </text>
</svg>
